X:1
T:Title
%%score { 1 | 2 }
L:1/8
Q:1/4=112
M:4/4
K:Bb
V:1 treble nm="Grand Piano"
V:2 bass 
V:1
 [DF]3 [DF] [DF]2 [DF]2 | [EG]2 [FA]2 [GB]2 G2 | F>F FF G2 A2 | [DB]6 z2 | [DF]3 [DF] [DF]2 [DF]2 | %5
w: J.~H.~Fillmore * * *|||||
 [EG]2 [FA]2 [GB]2 G2 | F>F FF G2 A2 | [DB]6 z2 | [Fd]2 z [Fd] [Fd]2 [Fd]2 | e2 d2 c2 B2 | %10
w: |||||
 c3 c c2 c2 | d2 c2 B2 A2 | B3 B B2 B2 | c2 B2 A2 G2 | F>F FF G2 A2 | B2 c2 d4 | F>F FF G2 A2 | %17
w: |||||||
 [DB]6 z2 |] %18
w: |
V:2
 [B,,B,]3 [B,,B,] [B,,B,]2 [B,,B,]2 | [E,B,]2 [E,B,]2 [E,B,]2 [E,B,E]2 | %2
 [F,A,C]>[F,A,C] [F,A,C][F,A,C] [F,CE]2 [F,CE]2 | [B,,B,]6 z2 | %4
 [B,,B,]3 [B,,B,] [B,,B,]2 [B,,B,]2 | [E,B,]2 [E,B,]2 [E,B,]2 [E,B,E]2 | %6
 [F,A,C]>[F,A,C] [F,A,C][F,A,C] [F,CE]2 [F,CE]2 | [B,,B,]6 z2 | %8
 [B,,B,]2 z [B,,B,] [B,,B,]2 [B,,B,]2 | [B,G]2 [B,F]2[K:bass] [B,E]2 [B,D]2 | %10
 [F,A,E]3 [F,A,E] [F,A,E]2 [F,A,E]2 | [F,A,F]2 [F,A,E]2 [F,A,D]2 [F,C]2 | %12
 [G,B,D]3 [G,B,D] [G,B,D]2 [G,B,D]2 | [E,G,E]2 [E,G,E]2 [E,A,E]2 [E,B,E]2 | %14
 [F,A,C]>[F,A,C] [F,A,C][F,A,] [F,CE]2 [F,CE]2 | [G,B,D]2 [F,A,F]2 [B,F]4 | %16
 [D,B,]>[D,B,] [D,B,][D,B,] [E,B,E]2 [F,C]2 | [B,,F,]6 z2 |] %18

